src/render/svg/meilisearch.svg

<svg xmlns="http://www.w3.org/2000/svg" viewBox="0 0 49 28">
    <path d="M.5 27.9999 9.37081 5.30346C10.6209 2.10507 13.7038 0 17.1378 0h5.3481l-8.8708 22.6965c-1.2501 3.1984-4.33301 5.3034-7.76702 5.3034zM13.5138 28l8.8708-22.69648c1.2501-3.19839 4.333-5.30345 7.767-5.30345h5.3481L26.6289 22.6965C25.3788 25.8949 22.2959 28 18.8619 28zM26.5284 28l8.8708-22.69648c1.2501-3.19839 4.333-5.30345 7.767-5.30345h5.3481L39.6435 22.6965C38.3934 25.8949 35.3105 28 31.8765 28z"/>
</svg>

<svg viewBox="0 0 49 28"
     xmlns="http://www.w3.org/2000/svg">
  <path
    d="M0.5 27.9999L9.37081 5.30346C10.6209 2.10507 13.7038 0 17.1378 0H22.4859L13.6151 22.6965C12.365 25.8949 9.28209 27.9999 5.84808 27.9999H0.5Z"></path>
  <path
    d="M13.5138 28L22.3846 5.30352C23.6347 2.10513 26.7176 6.68607e-05 30.1516 6.68607e-05H35.4997L26.6289 22.6965C25.3788 25.8949 22.2959 28 18.8619 28H13.5138Z"></path>
  <path
    d="M26.5284 28L35.3992 5.30352C36.6493 2.10513 39.7322 6.68607e-05 43.1662 6.68607e-05H48.5143L39.6435 22.6965C38.3934 25.8949 35.3105 28 31.8765 28H26.5284Z"></path>
</svg>
